toolkits/global/packages/global-context/img/icons/audio.svg

<svg height="24" viewBox="0 0 24 24" width="24" xmlns="http://www.w3.org/2000/svg"><path d="m16.0935866 16.5958311c-.1952468.1952774-.5118293.1953023-.7071067.0000555-.1952775-.1952468-.1953024-.5118293-.0000556-.7071068 1.0249313-1.0250922 1.6106053-2.4099368 1.6106053-3.8887798 0-1.4779561-.5849669-2.86203886-1.6088081-3.88698156-.1951572-.1953671-.194987-.51194954.0003801-.70710668s.5119496-.19498694.7071067.00038015c1.2092891 1.21059004 1.9013213 2.84799879 1.9013213 4.59370809 0 1.7467579-.6928679 3.3850659-1.903443 4.5958311zm2.1230489 2.1195911c-.1952016.1953226-.5117841.1954206-.7071067.0002189s-.1954206-.5117841-.0002189-.7071067c1.5829603-1.5839406 2.4877197-3.7239811 2.4877197-6.0085344 0-2.28421414-.904489-4.42396326-2.4870326-6.00784676-.1951795-.19534476-.1950455-.51192722.0002992-.70710672.1953448-.1951795.5119273-.19504553.7071068.00029922 1.7680402 1.76953724 2.7796266 4.16264659 2.7796266 6.71465426 0 2.5523869-1.0118886 4.9458215-2.7803941 6.7154222zm-14.2166355-3.7154222c-.55228475 0-1-.4477153-1-1v-4c0-.55228475.44771525-1 1-1h2l5.4187618-3.87054415c.4494126-.32100899 1.0739627-.21691731 1.3949717.23249528.1211434.16960075.1862665.37281522.1862665.58123819v12.11362138c0 .5522847-.4477153 1-1 1-.208423 0-.4116374-.0651232-.5812382-.1862666l-5.4187618-3.8705441zm0-1h2.32046505l5.67953495 4.0568107v-12.11362138l-5.67953495 4.05681068h-2.32046505z" fill="#666" fill-rule="evenodd"/></svg>

<?xml version="1.0" encoding="UTF-8"?>
<svg width="24px" height="24px" viewBox="0 0 24 24" version="1.1" xmlns="http://www.w3.org/2000/svg" xmlns:xlink="http://www.w3.org/1999/xlink">
    <!-- Generator: Sketch 63.1 (92452) - https://sketch.com -->
    <title>icon-icon / audio</title>
    <desc>Created with Sketch.</desc>
    <g id="icon-/-audio" stroke="none" stroke-width="1" fill="none" fill-rule="evenodd">
        <path d="M16.0935866,16.5958311 C15.8983398,16.7911085 15.5817573,16.7911334 15.3864799,16.5958866 C15.1912024,16.4006398 15.1911775,16.0840573 15.3864243,15.8887798 C16.4113556,14.8636876 16.9970296,13.478843 16.9970296,12 C16.9970296,10.5220439 16.4120627,9.13796114 15.3882215,8.11301844 C15.1930643,7.91765134 15.1932345,7.6010689 15.3886016,7.40591176 C15.5839687,7.21075462 15.9005512,7.21092482 16.0957083,7.40629191 C17.3049974,8.61688195 17.9970296,10.2542907 17.9970296,12 C17.9970296,13.7467579 17.3041617,15.3850659 16.0935866,16.5958311 Z M18.2166355,18.7154222 C18.0214339,18.9107448 17.7048514,18.9108428 17.5095288,18.7156411 C17.3142062,18.5204394 17.3141082,18.203857 17.5093099,18.0085344 C19.0922702,16.4245938 19.9970296,14.2845533 19.9970296,12 C19.9970296,9.71578586 19.0925406,7.57603674 17.509997,5.99215324 C17.3148175,5.79680848 17.3149515,5.48022602 17.5102962,5.28504652 C17.705641,5.08986702 18.0222235,5.09000099 18.217403,5.28534574 C19.9854432,7.05488298 20.9970296,9.44799233 20.9970296,12 C20.9970296,14.5523869 19.985141,16.9458215 18.2166355,18.7154222 Z M4,15 C3.44771525,15 3,14.5522847 3,14 L3,10 C3,9.44771525 3.44771525,9 4,9 L6,9 L11.4187618,5.12945585 C11.8681744,4.80844686 12.4927245,4.91253854 12.8137335,5.36195113 C12.9348769,5.53155188 13,5.73476635 13,5.94318932 L13,18.0568107 C13,18.6090954 12.5522847,19.0568107 12,19.0568107 C11.791577,19.0568107 11.5883626,18.9916875 11.4187618,18.8705441 L6,15 L4,15 Z M4,14 L6.32046505,14 L12,18.0568107 L12,5.94318932 L6.32046505,10 L4,10 L4,14 Z" id="audio" fill="#666666"></path>
    </g>
</svg>
